!!!OTL: Schloss in Oesterreich Es war ein Schloss in Oesterreich
!!!ARE: Europa, Suedosteuropa, Rumaenien, Siebenbuergen
!!!YOR: 1, S. 274
!!    1897 aufgezeichnet
!!!SCT: Q0024N
!!!YEM: Copyright 1995, estate of Helmut Schaffrath.
**kern
*ICvox
*Ivox
!! Mixed meters:  3/4; 2/4
*M2/4
*k[f#c#]
*D:
{8f#
8f#
8a
=1
*M3/4
4a
8g
8f#
8e
8g
=2
4g
8f#}
{8a
8a
8a
=3
*M2/4
4b
8g
8f#
=4
*M3/4
4f#
8e}
{8a
8b
8cc#
=5
4.dd
8f#
8g
8e
=6
*M2/4
4.ee}
{8dd
=7
8cc#
8b
8a
8f#
=8
*M3/4
4g
8f#}
{8a
8b
8cc#
=9
4.dd
8f#
8g
8e
=10
*M2/4
4.ee}
{8dd
=11
8cc#
8b
8a
8f#
=12
4g
8f#}
==
!!!AGN: Ballade, Gefangenschaft, Hinrichtung, Tod, Vergeltung
!! Vgl. Q0024L und M
!!!ONB: ESAC (Essen Associative Code) Database: BALLADE
!!!AMT: irregular
!!!AIN: vox
!!!EED: Helmut Schaffrath
!!!EEV: 1.0
*-
